X:1
T:Sylvia
B:Peter Kennedy. Folk Songs of Britain and Ireland
S:Tim Walsh, Devonport
Z:Cyril Tawney
Q:1/4=160
M:3/2
L:1/8
K:Em
E G3-G8|G2F4(GF) E2E2|B,6
w:Syl-via,_ Syl-via, Syl_-via one day
B,2B,2E2|(G2F4)(E^D) E2E2|B,6
w:She dressed her-self_ in_ men's ar-ray
GA B2B2|G2B4(BA) G3F|F6
w:With a load-ed pis-tol down_ by her side
B,2B,2E2|G2F4E2E2E2|(B3A) G2F2E3^D|E12|]
w:To rob her true love To rob her true_ love Syl-via did ride